X: 15037
T: George White's Favourite
R: reel
M: 4/4
K: Gmajor
Bd|:e~B3 eBdB|AGAB GEDE|G~B3 GABd|eBdB A2 Bd|
e~B3 eBdB|AGAB GEDE|GABd gedB|1 AGAB GABd:|2 AGAB G2 de||
|:gede gaba|~g3a gede|dega bgag|eaag a2 ga|
bgeg d2 de|gede gaba|~g3a gedB|1 AGAB G2 de:|2 AGAB GABd||

